X:1
T:Title
%%score { ( 1 3 ) | 2 }
L:1/8
M:4/4
K:A
V:1 treble nm="Grand Piano"
V:3 treble 
V:2 bass 
V:1
 z4 z2[Q:1/4=100] [CE][CA] | A2 G2 G2 FG | [CF]2 [CE]2 [CE]2 E[Ec] | c2 B2 d2 G2 | [CA]6 [CE][EA] | %5
 A2 G2 G2 FG | [CF]2 [CE]2 [CE]2 [CE][=CEF] | [B,EG]2 [Ec]2 [^DB]2 D2 |[M:3/4] E6 |[M:1/4] EF | %10
[M:4/4] G2 d2 c2 Bc | [DB]2 [CA]2 [CE]2 [EA][^EG] | z4 A2 B2 | [^Ec]6 [=Ec][=Ge] | %14
 [=Ge]2 [Fd]2 [Fd]2 [FB][Fc] | [Fd]2 [^Ec]2 [Fc]2 [FA][=Gc] | [Fc]2 [FB]2 [DF]2 [DG]2 | %17
[M:3/4] [CA]6 |] %18
V:2
 z4 z2 [A,,A,][A,,A,] | [E,B,D]2 [E,B,D]2 [E,B,D]2 [E,G,D][E,G,D] | %2
 [A,,A,]2 [A,,A,]2 [A,,A,]2 [C,A,][A,,A,] | [E,A,E]2 [E,G,E]2 [E,G,E]2 [E,B,D]2 | %4
 [A,,A,]6 [A,,A,][C,A,] | [E,B,D]2 [E,B,D]2 [E,B,D]2 [E,B,D][E,G,=C] | %6
 [A,,A,]2 [A,,A,]2 [A,,A,]2 A,,A,, | B,,2 [B,,G,]2 [B,,F,]2 [B,,A,B,]2 |[M:3/4] [E,G,]6 | %9
[M:1/4] [E,G,][E,A,^D] |[M:4/4] [E,B,D]2 [E,G,F]2 [E,G,E]2 [E,G,D][E,G,E] | %11
 [A,,A,]2 [A,,A,]2 [A,,A,]2 [C,A,][C,B,] | [F,A,]2 [^E,B,C]2 .[F,A,C]2 [D,F,]2 | %13
 [C,G,]6 [A,,A,][C,A,] | [D,A,]2 [D,A,]2 [D,A,]2 [D,A,][C,^A,] | %15
 [B,,B,]2 [C,B,]2 [F,^A,]2 [F,=A,][E,A,] | [D,A,]2 [D,A,]2 [B,,B,]2 [E,B,]2 |[M:3/4] [A,,A,]6 |] %18
V:3
 x8 | x8 | x8 | x8 | x8 | x8 | x8 | x8 |[M:3/4] x6 |[M:1/4] x2 |[M:4/4] x8 | x8 | F2 G2 z FGF | %13
 x8 | x8 | x8 | x8 |[M:3/4] x6 |] %18

